X:1
T:Jugend-Lieder
T:Mailied
T:Jugen-Lieder
T:Mathilde Kralik
T:3. Mailied
T:Johann Wolfgang von Goethe
T:Creative Commons copyright waiver (CC0 1.0 Universal)
T:Creative Commons copyright waiver (CC0 1.0 Universal)
T:Creative Commons copyright waiver (CC0 1.0 Universal)
C:Mathilde Kralik
Z:Johann Wolfgang von Goethe
Z:Creative Commons copyright waiver (CC0 1.0 Universal)
L:1/8
Q:1/4=120
M:6/8
K:A
V:1 treble nm="Singstimme\nVoice"
V:1
"^Lieblich" z2 z | z6 | z6 | z6 | z2 z z!mf! c A | G3/2 A/ B A c A | G3/2 A/ B A e c | z6 | z6 | %9
w: ||||Zwi- schen|Wei- zen und Korn, zwi- schen|He- cken und Dorn, zwi- schen|||
 z6 | z6 | z6 | z6 | z6 | z6 | z6 | z6 | z6 | z6 | z6 | z6 | z6 | z6 | z6 | z6 | z6 | z6 | z6 | %28
w: |||||||||||||||||||
 z6 | z2 z z c A | !>!G3/2 A/ B A c A | G3/2 A/ B A e c | z6 | z6 | z6 | z6 | z6 | z6 | z6 | z6 | %40
w: |An dem|Fel- sen beim Fluss, wo sie|reich- te den Kuss je- nen|||||||||
 z6 | z6 | z6 |] %43
w: |||

